svgs/sharp-regular/book-copy.svg

<svg xmlns="http://www.w3.org/2000/svg" viewBox="0 0 576 512"><!--! Font Awesome Pro 6.6.0 by @fontawesome - https://fontawesome.com License - https://fontawesome.com/license (Commercial License) Copyright 2024 Fonticons, Inc. --><path d="M192 88c0-48.6 39.4-88 88-88L552 0l24 0 0 24 0 112 0 24 0 120 0 24-24 0-8 0 0 64 8 0 24 0 0 48-24 0-32 0-248 0c-44.2 0-80-35.8-80-80l0-248zM528 48L280 48c-22.1 0-40 17.9-40 40l0 174.7c9.8-4.3 20.6-6.7 32-6.7l248 0 8 0 0-96 0-24 0-88zM272 304c-17.7 0-32 14.3-32 32s14.3 32 32 32l224 0 0-64-224 0zM160 96l0 48-72 0c-22.1 0-40 17.9-40 40l0 174.7c9.8-4.3 20.6-6.7 32-6.7l81.1 0c2.5 17.7 9.2 34 18.9 48L80 400c-17.7 0-32 14.3-32 32s14.3 32 32 32l224 0 0-16 48 0 0 16 8 0 24 0 0 48-24 0-32 0L80 512c-44.2 0-80-35.8-80-80L0 184c0-48.6 39.4-88 88-88l72 0z"/></svg>

<svg xmlns="http://www.w3.org/2000/svg" viewBox="0 0 576 512"><!--! Font Awesome Pro 6.5.2 by @fontawesome - https://fontawesome.com License - https://fontawesome.com/license (Commercial License) Copyright 2024 Fonticons, Inc. --><path d="M192 88c0-48.6 39.4-88 88-88H552h24V24 136v24V280v24H552h-8v64h8 24v48H552 520 272c-44.2 0-80-35.8-80-80V88zM528 48H280c-22.1 0-40 17.9-40 40V262.7c9.8-4.3 20.6-6.7 32-6.7H520h8V160 136 48zM272 304c-17.7 0-32 14.3-32 32s14.3 32 32 32H496V304H272zM160 96v48H88c-22.1 0-40 17.9-40 40V358.7c9.8-4.3 20.6-6.7 32-6.7h81.1c2.5 17.7 9.2 34 18.9 48H80c-17.7 0-32 14.3-32 32s14.3 32 32 32H304V448h48v16h8 24v48H360 328 80c-44.2 0-80-35.8-80-80V184c0-48.6 39.4-88 88-88h72z"/></svg>
